X: 1
T: the Cookow
C:
R: reel
Z: 2014 John Chambers <jc:trillian.mit.edu>
M: C|
L: 1/8
P: AAB
K: C
"A"[|] G2 |\
"C"cBcd cdcd | edef efef | gfga gagf | edef efef |\
"G"g2d2 g2d2 | g2d2 g2d2 | "Am"c2B>A "D7"A3G | "G"G6 :|
"B1"[|] Bc |\
"G"d2de dcBA | G6 Bc | dBdB dBdB | "G7"G6 ef |\
"C"g2ga gfed | c6 | ef | gege gege | c6 |]
"B2"[|] fg |\
"F"afcf afcf | afcf afef | "C"g2"F"fe "G7"d3c | "C"c6 fg |\
"F"afcf afcf | afcf afef | "C"g2"F"fe "G7"d3c | "C"c6 |]
